X:1
T:Lesson 4 - Lightly Row
M:C
K:A
L:1/4
ve c c2|d B B2|A B c d|e e e2|e c c2|d B B2|A c e e|c c c2|
vB B B B|B c d2|c c c c|c d e2|e c c c|d B B B|A c e e|c2 c2:|]
